img/quality.svg

<svg id="_x33_0" enable-background="new 0 0 64 64" height="512" viewBox="0 0 64 64" width="512" xmlns="http://www.w3.org/2000/svg"><path d="m11 2h29v8h-29z" fill="#fcd770"/><path d="m11 10 8 14h-16z" fill="#ccd1d9"/><path d="m11 33-8-9v38h8 8v-38z" fill="#ccd1d9"/><path d="m19 24-8 9-8-9z" fill="#aab2bd"/><path d="m40 10 8 14h-29l-8-14z" fill="#e6e9ed"/><path d="m19 24h29v38h-29z" fill="#e6e9ed"/><path d="m42 39 .08.35c-1.74.41-3.81.65-6.08.65v4.37c0 4.25 1.5 8.3 4.16 11.49l-.16.14h-15v-26h17z" fill="#ffeaa7"/><path d="m60 40v4.37c0 6.02-3.01 11.64-8.02 14.97l-3.98 2.66-3.98-2.66c-1.47-.98-2.77-2.15-3.86-3.48-2.66-3.19-4.16-7.24-4.16-11.49v-4.37c2.27 0 4.34-.24 6.08-.65 3.64-.86 5.92-2.49 5.92-4.35 0 2.76 5 5 12 5z" fill="#b4dd7f"/><path d="m41.707 48.293-1.414 1.414 5.707 5.707 11.707-11.707-1.414-1.414-10.293 10.293z"/><path d="m60 39c-6.58 0-11-2.068-11-4v-11.266l-8-14v-8.734h-31v8.734l-8 14v39.266h46.303l4.236-2.824c5.298-3.532 8.461-9.442 8.461-15.809v-5.367zm-13.723-16h-26.697l-6.857-12h26.697zm-35.277 8.495-5.773-6.495h11.547zm1 1.885 6-6.75v34.37h-6zm27-30.38v6h-27v-6zm-28 9.016 6.277 10.984h-12.554zm-7 14.614 6 6.75v27.62h-6zm16 34.37v-36h27v10c0 1.116-1.483 2.276-4 3.058v-9.058h-19v28h15.809c1.065 1.194 2.286 2.265 3.652 3.176l1.236.824zm18.258-6h-12.258v-24h15v7.55c-1.463.28-3.141.45-5 .45h-1v5.367c0 3.855 1.166 7.539 3.258 10.633zm20.742-10.633c0 5.697-2.83 10.985-7.57 14.145l-3.43 2.286-3.43-2.287c-4.74-3.159-7.57-8.447-7.57-14.144v-3.382c5.149-.156 9.208-1.52 11-3.549 1.792 2.029 5.851 3.393 11 3.549z"/></svg>

<svg xmlns="http://www.w3.org/2000/svg" height="512" viewBox="0 0 64 64" width="512" xmlns:v="https://vecta.io/nano"><path d="M11 2h29v8H11z" fill="#fcd770"/><g fill="#ccd1d9"><path d="M11 10l8 14H3z"/><path d="M11 33l-8-9v38h16V24z"/></g><path d="m19 24-8 9-8-9z" fill="#aab2bd"/><g fill="#e6e9ed"><path d="M40 10l8 14H19l-8-14z"/><path d="M19 24h29v38H19z"/></g><path d="M42 39l.08.35c-1.74.4-3.8.65-6.08.65v4.37a17.93 17.93 0 0 0 4.16 11.49L40 56H25V30h17z" fill="#ffeaa7"/><path d="M60 40v4.37c0 6.02-3 11.64-8.02 14.97L48 62l-3.98-2.66c-1.47-.98-2.77-2.15-3.86-3.48A17.93 17.93 0 0 1 36 44.37V40c2.27 0 4.34-.24 6.08-.65C45.72 38.5 48 36.86 48 35c0 2.76 5 5 12 5z" fill="#b4dd7f"/><path d="M41.707 48.293l-1.414 1.414L46 55.414l11.707-11.707-1.414-1.414L46 52.586zM60 39c-6.58 0-11-2.068-11-4V23.734l-8-14V1H10v8.734l-8 14V63h46.303l4.236-2.824A18.96 18.96 0 0 0 61 44.367V39zM46.277 23H19.58l-6.857-12H39.42zM11 31.495L5.227 25h11.547zm1 1.885l6-6.75V61h-6zM39 3v6H12V3zm-28 9.016L17.277 23H4.723zM4 26.63l6 6.75V61H4zM20 61V25h27v10c0 1.116-1.483 2.276-4 3.058V29H24v28h15.8a19.07 19.07 0 0 0 3.652 3.176l1.236.824zm18.258-6H26V31h15v7.55c-1.463.28-3.14.45-5 .45h-1v5.367A18.96 18.96 0 0 0 38.258 55zM59 44.367c0 5.697-2.83 10.985-7.57 14.145L48 60.798l-3.43-2.287C39.83 55.352 37 50.064 37 44.367v-3.382c5.15-.156 9.208-1.52 11-3.55 1.792 2.03 5.85 3.393 11 3.55z"/></svg>
